src/assets/img/icon-file.svg

<?xml version="1.0" encoding="utf-8"?>
<!-- Generator: Adobe Illustrator 15.1.0, SVG Export Plug-In . SVG Version: 6.00 Build 0)  -->
<!DOCTYPE svg PUBLIC "-//W3C//DTD SVG 1.1//EN" "http://www.w3.org/Graphics/SVG/1.1/DTD/svg11.dtd">
<svg version="1.1" id="Layer_1" xmlns="http://www.w3.org/2000/svg" xmlns:xlink="http://www.w3.org/1999/xlink" x="0px" y="0px"
	 width="22px" height="27.5px" viewBox="0.5 0.75 22 27.5" enable-background="new 0.5 0.75 22 27.5" xml:space="preserve">
<g>
	<path fill="#18191C" d="M14.25,0.75h-11C1.737,0.75,0.5,1.987,0.5,3.5v22c0,1.513,1.237,2.75,2.75,2.75h16.5
		c1.513,0,2.75-1.237,2.75-2.75V9L14.25,0.75z M19.75,25.5H3.25v-22h9.625v6.875h6.875V25.5z M7.375,15.875v8.25h-2.75v-8.25H7.375z
		 M15.625,18.625v5.5h2.75v-5.5H15.625z M10.125,13.125v11h2.75v-11H10.125z"/>
</g>
</svg>

<svg width="23" height="29" viewBox="0 0 23 29" fill="none" xmlns="http://www.w3.org/2000/svg">
<path d="M14.25 0.75H3.25C1.7375 0.75 0.5 1.9875 0.5 3.5V25.5C0.5 27.0125 1.7375 28.25 3.25 28.25H19.75C21.2625 28.25 22.5 27.0125 22.5 25.5V9L14.25 0.75ZM19.75 25.5H3.25V3.5H12.875V10.375H19.75V25.5ZM7.375 15.875V24.125H4.625V15.875H7.375ZM15.625 18.625V24.125H18.375V18.625H15.625ZM10.125 13.125V24.125H12.875V13.125H10.125Z" fill="#18191C"/>
</svg>
